!!!COM: Anon.
!!!OTL: O que tens, o/ Juliana
!!!OTL: Romanceiro Folclorico do Brasil
!!!CNT: Brasil
!!!OCY: Brasil
!!!ODT: <1971///
!!!PSR: Irmaos Vitale
!!!PSP: Sao Paulo, Brasil
!!!PDT: 1950///
!!!PPE: Rossini Tavares de Lima
!!!PPG: pages 18-19
!! Romance: Juliana E D. Jorge
!! Place: Carangola, Minas Gerais, Brasil
**kern
*clefG2
*k[]
*M3/4
*MM100
8g
8cc
=
4b
4g
8f
8d
=
4e
4c
8g
8cc
=
4b
4g
8a
8b
=
2cc
8c
8c
=
4f
4a
8cc
8b
=
4e
4g
8b
8a
=
4d
4g
8f
8d
=
2c
8c
8c
=
4f
4a
8cc
8b
=
4e
4g
8b
8a
=
4d
4g
8f
8d
=
2c
==
*-
